X: 11813
T: ITALIAN MANFREDA
Q: "With spirit."
%R: jig, tarantella
B: W. Hamilton "Universal Tune-Book" Vol. 1 Glasgow 1844 p.181 #3
S: http://imslp.org/wiki/Hamilton's_Universal_Tune-Book_(Various)
Z: 2016 John Chambers <jc:trillian.mit.edu>
M: 6/8
L: 1/8
K: G
% - - - - - - - - - - - - - - - - - - - - - - - - -
D |\
GAB BcA | AGG G2d | dFF FGA | AGG G2D |\
GAB BcA | AGG G2G | GFF FGA | AGG G2 |]
% - - - - - - - - - - - - - - - - - - - - - - - - -
g |\
gfg a2d | cBc d2g | gfg afd | cBc def |\
gfg gfg | efg gfe | ded cBA | AGG G2 |]

%%sep 1 1 500
%%sep 1 1 500

